_src/static/img/icon/baby-blue.svg

<svg width="27" height="26" viewBox="0 0 27 26" fill="none" xmlns="http://www.w3.org/2000/svg">
<path d="M22.4648 17.6519L22.4647 17.6523C21.5884 21.6179 17.8229 24.5118 13.4993 24.5118C9.17579 24.5118 5.41137 21.6181 4.53443 17.653C4.47644 17.3863 4.23985 17.198 3.96932 17.198H3.72084C2.74881 17.198 1.95745 16.4068 1.95745 15.4351C1.95745 14.4639 2.74891 13.6718 3.72084 13.6718H4.22156C4.47019 13.6718 4.69112 13.5134 4.77033 13.2773C5.97962 9.68583 9.48347 7.26214 13.4993 7.26214C13.6001 7.26214 13.7009 7.26461 13.8038 7.26768C13.9737 7.29345 14.15 7.31113 14.3327 7.31113C14.3601 7.31113 14.3859 7.30894 14.4097 7.3056C18.0371 7.64111 21.1107 9.96008 22.2282 13.2771L22.2283 13.2773C22.3078 13.5127 22.5278 13.6715 22.7769 13.6715H23.2784C24.2503 13.6715 25.0413 14.4628 25.0413 15.4349C25.0413 16.4068 24.2502 17.1978 23.2782 17.1978H23.0297C22.7578 17.1978 22.5237 17.388 22.4648 17.6519ZM23.2797 12.514H23.1837C21.7413 8.77706 18.0885 6.26375 13.9013 6.11231C12.7854 5.90817 11.9371 4.9311 11.9371 3.75858C11.9371 2.76531 12.7453 1.9572 13.7377 1.9572C14.4679 1.9572 15.0626 2.55233 15.0626 3.28211C15.0626 3.80262 14.6385 4.22679 14.118 4.22679C13.7664 4.22679 13.4795 3.94002 13.4795 3.58759C13.4795 3.26815 13.2202 3.00887 12.9008 3.00887C12.5813 3.00887 12.3221 3.26815 12.3221 3.58759C12.3221 4.57813 13.1274 5.3845 14.1182 5.3845C15.2779 5.3845 16.2203 4.44201 16.2203 3.28236C16.2203 1.91347 15.1066 0.8 13.738 0.8C12.1063 0.8 10.7797 2.12753 10.7797 3.75883C10.7797 4.72383 11.1674 5.59854 11.7932 6.23849C8.16561 6.80841 5.10625 9.17184 3.81607 12.5143H3.72087C3.72086 12.5143 3.72085 12.5143 3.72084 12.5143C2.1099 12.514 0.8 13.8248 0.8 15.4351C0.8 16.9766 1.99968 18.2424 3.51468 18.348C4.6844 22.6232 8.81185 25.6685 13.4993 25.6685C18.1867 25.6685 22.3148 22.6232 23.486 18.3478C25.0004 18.2424 26.2 16.9762 26.2 15.4349C26.2 13.824 24.8893 12.514 23.2797 12.514Z" fill="#1B3ACD" stroke="#1B3ACD" stroke-width="0.4"/>
<path d="M16.6728 18.0613C17.3161 18.0613 17.8377 17.5397 17.8377 16.8963C17.8377 16.2529 17.3161 15.7314 16.6728 15.7314C16.0294 15.7314 15.5078 16.2529 15.5078 16.8963C15.5078 17.5397 16.0294 18.0613 16.6728 18.0613Z" fill="#1B3ACD" stroke="#1B3ACD" stroke-width="0.5"/>
<path d="M10.675 18.0615C11.3185 18.0615 11.8402 17.5398 11.8402 16.8963C11.8402 16.2528 11.3185 15.7311 10.675 15.7311C10.0314 15.7311 9.50977 16.2528 9.50977 16.8963C9.50977 17.5398 10.0314 18.0615 10.675 18.0615Z" fill="#1B3ACD" stroke="#1B3ACD" stroke-width="0.5"/>
<path d="M15.7982 20.135L15.7982 20.135L15.7967 20.136L15.6497 20.2272C15.6496 20.2273 15.6495 20.2274 15.6493 20.2275C14.3208 21.0452 12.6756 21.0443 11.351 20.228L11.351 20.228L11.2025 20.1365L11.2025 20.1365L11.2019 20.1361C10.9083 19.9564 10.5215 20.045 10.3379 20.3411L10.3379 20.3411L10.3377 20.3415C10.1548 20.6377 10.2489 21.0239 10.5418 21.2061L10.5418 21.2061L10.5429 21.2068L10.692 21.2984C10.692 21.2984 10.692 21.2984 10.6921 21.2985C11.5567 21.8311 12.5271 22.0978 13.4994 22.0978C14.4712 22.0978 15.443 21.8303 16.309 21.2975L16.4578 21.206L16.4582 21.2057C16.7525 21.0239 16.8455 20.6366 16.6628 20.3405L16.6627 20.3404C16.4794 20.0438 16.0912 19.9561 15.7982 20.135Z" fill="#1B3ACD" stroke="#1B3ACD" stroke-width="0.5"/>
</svg>

<svg width="27" height="26" fill="none" xmlns="http://www.w3.org/2000/svg"><path d="M22.465 17.652h0c-.877 3.966-4.642 6.86-8.966 6.86-4.323 0-8.088-2.894-8.965-6.859a.578.578 0 00-.565-.455h-.248a1.766 1.766 0 01-1.764-1.763c0-.971.792-1.763 1.764-1.763h.5a.58.58 0 00.55-.395c1.209-3.591 4.712-6.015 8.728-6.015.101 0 .202.003.305.006.17.025.346.043.529.043a.554.554 0 00.077-.005c3.627.335 6.7 2.654 7.818 5.971h0c.08.236.3.395.549.395h.501c.972 0 1.763.79 1.763 1.763 0 .972-.79 1.763-1.763 1.763h-.248a.58.58 0 00-.565.454zm.815-5.138h-.096c-1.443-3.737-5.096-6.25-9.283-6.402a2.398 2.398 0 01-1.964-2.353c0-.994.808-1.802 1.8-1.802.73 0 1.326.595 1.326 1.325 0 .52-.425.945-.945.945a.64.64 0 01-.639-.64.579.579 0 00-1.157 0c0 .991.805 1.797 1.796 1.797 1.16 0 2.102-.942 2.102-2.102A2.485 2.485 0 0013.738.8a2.962 2.962 0 00-2.958 2.959c0 .965.387 1.84 1.013 2.48-3.627.57-6.687 2.933-7.977 6.275h-.095s0 0 0 0A2.924 2.924 0 00.8 15.435c0 1.542 1.2 2.807 2.715 2.913 1.17 4.275 5.297 7.32 9.984 7.32 4.688 0 8.816-3.045 9.987-7.32a2.923 2.923 0 002.714-2.913 2.924 2.924 0 00-2.92-2.921z" fill="#1B3ACD" stroke="#1B3ACD" stroke-width=".4"/><path d="M16.673 18.061a1.165 1.165 0 100-2.33 1.165 1.165 0 000 2.33zm-5.998 0a1.165 1.165 0 100-2.33 1.165 1.165 0 000 2.33zm5.123 2.074h0l-.001.001-.147.091s0 0 0 0a4.075 4.075 0 01-4.299.001h0l-.149-.091h0a.63.63 0 00-.864.204h0a.63.63 0 00.204.865h0l.15.092s0 0 0 0c.865.533 1.835.8 2.807.8s1.944-.268 2.81-.8l.149-.092h0a.63.63 0 00.205-.866h0a.63.63 0 00-.865-.205z" fill="#1B3ACD" stroke="#1B3ACD" stroke-width=".5"/></svg>
